plasma/desktoptheme/Materia/icons/qbittorrent.svg

<svg xmlns="http://www.w3.org/2000/svg" width="32" height="32" version="1.1">
 <g id="22-22-qbittorrent-tray" transform="translate(32,10)">
  <path style="opacity:0.001" d="M 0,0 H 22 V 22 H 0 Z"/>
  <path style="fill:#dfdfdf" d="m 13,3 a 1,1 0 0 0 -1,1 v 11 h 2 V 14.458984 C 14.607485,14.81219 15.297298,14.998156 16,15 18.209139,15 20,13.209139 20,11 20,8.7908608 18.209139,7 16,7 15.29748,7.00125 14.607679,7.1865555 14,7.5390625 V 4 A 1,1 0 0 0 13,3 Z m 3,6 c 1.104569,0 2,0.8954308 2,2 0,1.104569 -0.895431,2 -2,2 -1.104569,0 -2,-0.895431 -2,-2 0,-1.1045692 0.895431,-2 2,-2 z"/>
  <path style="opacity:0.35;fill:#dfdfdf" d="m 6,7 c -2.209139,0 -4,1.7908608 -4,4 0,2.209139 1.790861,4 4,4 0.702523,-0.0013 1.392325,-0.188495 2,-0.541016 V 18 a 1,1 0 0 0 1,1 1,1 0 0 0 1,-1 V 7 H 8 V 7.5410156 C 7.392515,7.1878093 6.702702,7.0018543 6,7 Z M 6,9 C 7.10457,9 8,9.8954308 8,11 8,12.104569 7.10457,13 6,13 4.895431,13 4,12.104569 4,11 4,9.8954308 4.895431,9 6,9 Z"/>
 </g>
 <g id="qbittorrent-tray">
  <rect style="opacity:0.001" width="32" height="32" x="0" y="0"/>
  <g>
   <path style="opacity:0.2" d="M 22.5,23 A 5.5,5.5 0 0 0 28,17.5 5.5,5.5 0 0 0 22.5,12 5.5,5.5 0 0 0 20,12.607 V 7 H 17 V 17.5 23 h 3 v -0.60156 a 5.5,5.5 0 0 0 2.5,0.602 z m 0,-3 A 2.5,2.5 0 0 1 20,17.5 2.5,2.5 0 0 1 22.5,15 2.5,2.5 0 0 1 25,17.5 2.5,2.5 0 0 1 22.5,20 Z"/>
   <path style="opacity:0.2" d="M 9.5,12 A 5.5,5.5 0 0 0 4,17.5 5.5,5.5 0 0 0 9.5,23 5.5,5.5 0 0 0 12,22.393 V 28 h 3 V 17.5 12 h -3 v 0.60156 a 5.5,5.5 0 0 0 -2.5,-0.602 z m 0,3 A 2.5,2.5 0 0 1 12,17.5 2.5,2.5 0 0 1 9.5,20 2.5,2.5 0 0 1 7,17.5 2.5,2.5 0 0 1 9.5,15 Z"/>
   <circle style="opacity:0.2" cx="16" cy="17" r="14"/>
   <circle style="fill:#2f67ba" cx="16" cy="16" r="14"/>
   <path style="opacity:0.2" d="M 9.5,12 C 6.4624339,12 4,14.462434 4,17.5 4,20.537566 6.4624339,23 9.5,23 10.369602,22.9981 11.226371,22.789703 12,22.392578 V 26.5 A 1.5,1.5 0 0 0 13.5,28 1.5,1.5 0 0 0 15,26.5 v -9 -5.5 h -3 v 0.601562 C 11.225942,12.20617 10.369195,12.000303 9.5,12 Z m 0,3 C 10.880712,15 12,16.119288 12,17.5 12,18.880712 10.880712,20 9.5,20 8.1192881,20 7,18.880712 7,17.5 7,16.119288 8.1192881,15 9.5,15 Z"/>
   <path style="fill:#64d4f9" d="M 9.5,11 C 6.4624339,11 4,13.462434 4,16.5 4,19.537566 6.4624339,22 9.5,22 10.369602,21.9981 11.226371,21.789703 12,21.392578 V 25.5 A 1.5,1.5 0 0 0 13.5,27 1.5,1.5 0 0 0 15,25.5 v -9 -5.5 h -3 v 0.601562 C 11.225942,11.20617 10.369195,11.000303 9.5,11 Z m 0,3 C 10.880712,14 12,15.119288 12,16.5 12,17.880712 10.880712,19 9.5,19 8.1192881,19 7,17.880712 7,16.5 7,15.119288 8.1192881,14 9.5,14 Z"/>
   <path style="opacity:0.2" d="M 18.5,7 A 1.5,1.5 0 0 0 17,8.5 v 9 5.5 h 3 V 22.398438 C 20.774058,22.79383 21.630805,22.999697 22.5,23 25.537566,23 28,20.537566 28,17.5 28,14.462434 25.537566,12 22.5,12 21.630398,12.0019 20.773629,12.210297 20,12.607422 V 8.5 A 1.5,1.5 0 0 0 18.5,7 Z m 4,8 C 23.880712,15 25,16.119288 25,17.5 25,18.880712 23.880712,20 22.5,20 21.119288,20 20,18.880712 20,17.5 20,16.119288 21.119288,15 22.5,15 Z"/>
   <path style="fill:#ffffff" d="M 18.5,6 A 1.5,1.5 0 0 0 17,7.5 v 9 5.5 h 3 V 21.398438 C 20.774058,21.79383 21.630805,21.999697 22.5,22 25.537566,22 28,19.537566 28,16.5 28,13.462434 25.537566,11 22.5,11 21.630398,11.0019 20.773629,11.210297 20,11.607422 V 7.5 A 1.5,1.5 0 0 0 18.5,6 Z m 4,8 C 23.880712,14 25,15.119288 25,16.5 25,17.880712 23.880712,19 22.5,19 21.119288,19 20,17.880712 20,16.5 20,15.119288 21.119288,14 22.5,14 Z"/>
   <path style="opacity:0.1;fill:#ffffff" d="M 16,2 A 14,14 0 0 0 2,16 14,14 0 0 0 2.0215,16.586 14,14 0 0 1 15.9995,3 14,14 0 0 1 29.9785,16.414 14,14 0 0 0 29.9995,16 a 14,14 0 0 0 -14,-14 z"/>
  </g>
 </g>
</svg>

<?xml version="1.0" encoding="UTF-8"?>
<svg width="32" height="32" version="1.1" xmlns="http://www.w3.org/2000/svg">
 <g id="22-22-qbittorrent-tray" transform="translate(32,10)">
  <path d="m0 0h22v22h-22z" opacity=".001"/>
  <path d="m13 3a1 1 0 0 0-1 1v11h2v-0.54102c0.60748 0.35321 1.2973 0.53917 2 0.54102 2.2091 0 4-1.7909 4-4 0-2.2091-1.7909-4-4-4-0.70252 0.00125-1.3923 0.18656-2 0.53906v-3.5391a1 1 0 0 0-1-1zm3 6c1.1046 0 2 0.89543 2 2 0 1.1046-0.89543 2-2 2s-2-0.89543-2-2c0-1.1046 0.89543-2 2-2z" fill="#dfdfdf"/>
  <path d="m6 7c-2.2091 0-4 1.7909-4 4 0 2.2091 1.7909 4 4 4 0.70252-0.0013 1.3923-0.1885 2-0.54102v3.541a1 1 0 0 0 1 1 1 1 0 0 0 1-1v-11h-2v0.54102c-0.60748-0.35321-1.2973-0.53916-2-0.54102zm0 2c1.1046 0 2 0.89543 2 2 0 1.1046-0.89543 2-2 2-1.1046 0-2-0.89543-2-2 0-1.1046 0.89543-2 2-2z" fill="#dfdfdf" opacity=".35"/>
 </g>
 <g id="qbittorrent-tray">
  <rect width="32" height="32" opacity=".001"/>
  <path d="m22.5 23a5.5 5.5 0 0 0 5.5-5.5 5.5 5.5 0 0 0-5.5-5.5 5.5 5.5 0 0 0-2.5 0.607v-5.607h-3v16h3v-0.60156a5.5 5.5 0 0 0 2.5 0.602zm0-3a2.5 2.5 0 0 1-2.5-2.5 2.5 2.5 0 0 1 2.5-2.5 2.5 2.5 0 0 1 2.5 2.5 2.5 2.5 0 0 1-2.5 2.5z" opacity=".2"/>
  <path d="m9.5 12a5.5 5.5 0 0 0-5.5 5.5 5.5 5.5 0 0 0 5.5 5.5 5.5 5.5 0 0 0 2.5-0.607v5.607h3v-16h-3v0.60156a5.5 5.5 0 0 0-2.5-0.602zm0 3a2.5 2.5 0 0 1 2.5 2.5 2.5 2.5 0 0 1-2.5 2.5 2.5 2.5 0 0 1-2.5-2.5 2.5 2.5 0 0 1 2.5-2.5z" opacity=".2"/>
  <circle cx="16" cy="17" r="14" opacity=".2"/>
  <circle cx="16" cy="16" r="14" fill="#2f67ba"/>
  <path d="m9.5 12c-3.0376 0-5.5 2.4624-5.5 5.5s2.4624 5.5 5.5 5.5c0.8696-0.0019 1.7264-0.2103 2.5-0.60742v4.1074a1.5 1.5 0 0 0 1.5 1.5 1.5 1.5 0 0 0 1.5-1.5v-14.5h-3v0.60156c-0.77406-0.39539-1.6308-0.60126-2.5-0.60156zm0 3c1.3807 0 2.5 1.1193 2.5 2.5s-1.1193 2.5-2.5 2.5c-1.3807 0-2.5-1.1193-2.5-2.5s1.1193-2.5 2.5-2.5z" opacity=".2"/>
  <path d="m9.5 11c-3.0376 0-5.5 2.4624-5.5 5.5s2.4624 5.5 5.5 5.5c0.8696-0.0019 1.7264-0.2103 2.5-0.60742v4.1074a1.5 1.5 0 0 0 1.5 1.5 1.5 1.5 0 0 0 1.5-1.5v-14.5h-3v0.60156c-0.77406-0.39539-1.6308-0.60126-2.5-0.60156zm0 3c1.3807 0 2.5 1.1193 2.5 2.5s-1.1193 2.5-2.5 2.5c-1.3807 0-2.5-1.1193-2.5-2.5s1.1193-2.5 2.5-2.5z" fill="#64d4f9"/>
  <path d="m18.5 7a1.5 1.5 0 0 0-1.5 1.5v14.5h3v-0.60156c0.77406 0.39539 1.6308 0.60126 2.5 0.60156 3.0376 0 5.5-2.4624 5.5-5.5s-2.4624-5.5-5.5-5.5c-0.8696 0.0019-1.7264 0.2103-2.5 0.60742v-4.1074a1.5 1.5 0 0 0-1.5-1.5zm4 8c1.3807 0 2.5 1.1193 2.5 2.5s-1.1193 2.5-2.5 2.5-2.5-1.1193-2.5-2.5 1.1193-2.5 2.5-2.5z" opacity=".2"/>
  <path d="m18.5 6a1.5 1.5 0 0 0-1.5 1.5v14.5h3v-0.60156c0.77406 0.39539 1.6308 0.60126 2.5 0.60156 3.0376 0 5.5-2.4624 5.5-5.5s-2.4624-5.5-5.5-5.5c-0.8696 0.0019-1.7264 0.2103-2.5 0.60742v-4.1074a1.5 1.5 0 0 0-1.5-1.5zm4 8c1.3807 0 2.5 1.1193 2.5 2.5s-1.1193 2.5-2.5 2.5-2.5-1.1193-2.5-2.5 1.1193-2.5 2.5-2.5z" fill="#fff"/>
  <path d="m16 2a14 14 0 0 0-14 14 14 14 0 0 0 0.0215 0.586 14 14 0 0 1 13.978-13.586 14 14 0 0 1 13.979 13.414 14 14 0 0 0 0.021-0.414 14 14 0 0 0-14-14z" fill="#fff" opacity=".1"/>
 </g>
</svg>
